src/48x48/places/folder-gruvbox-material-purple-vmware.svg

<svg xmlns="http://www.w3.org/2000/svg" width="48" height="48" version="1">
 <rect style="opacity:0.2" width="40" height="26" x="4" y="17" rx="2" ry="2"/>
 <path style="fill:#945e80" d="M 4,34 C 4,35.108 4.892,36 6,36 H 42 C 43.108,36 44,35.108 44,34 V 12 C 44,10.892 43.108,10 42,10 H 24 C 21,10 20,6 17,6 H 6 C 4.892,6 4,6.892 4,8"/>
 <rect style="opacity:0.2" width="40" height="26" x="4" y="15" rx="2" ry="2"/>
 <rect style="fill:#E5DFC8" width="36" height="16" x="6" y="13" rx="2" ry="2"/>
 <rect style="fill:#d3869b" width="40" height="26" x="4" y="16" rx="2" ry="2"/>
 <path style="opacity:0.1;fill:#E5DFC8" d="M 6,6 C 4.892,6 4,6.892 4,8 V 9 C 4,7.892 4.892,7 6,7 H 17 C 20,7 21,11 24,11 H 42 C 43.108,11 44,11.892 44,13 V 12 C 44,10.892 43.108,10 42,10 H 24 C 21,10 20,6 17,6 Z"/>
 <path style="fill:#4A413F" d="M 17.142578,21 C 16.509435,21 16,21.509435 16,22.142578 v 4.742188 c 0,0.633143 0.310216,1.144531 0.943359,1.144531 C 17.576502,28.029297 18,27.51791 18,26.884766 V 24.693 l 2,1.914422 V 28 h 2 V 27.5 C 22,27.223 22.223,27 22.5,27 H 23 V 25 H 21.607422 L 19.693,23 h 2.191766 c 0.633143,0 1.144531,-0.423498 1.144531,-1.056641 C 23.029297,21.310216 22.517909,21 21.884766,21 Z m 8.972656,0 c -0.633143,0 -1.144531,0.310216 -1.144531,0.943359 0,0.633143 0.511388,1.056641 1.144531,1.056641 H 28.307 l -1.914422,2 H 25 v 2 h 0.5 c 0.277,0 0.5,0.223 0.5,0.5 V 28 h 2 V 26.607422 L 30,24.693 v 2.191766 c 0,0.633143 0.423498,1.144531 1.056641,1.144531 C 31.689784,28.029297 32,27.517909 32,26.884766 V 22.142578 C 32,21.509435 31.490565,21 30.857422,21 Z m 4.941407,8.970703 C 30.423498,29.970703 30,30.482091 30,31.115234 V 33.307 L 28,31.392578 V 30 h -2 v 0.5 C 26,30.777 25.777,31 25.5,31 H 25 v 2 h 1.392578 L 28.307,35 H 26.115234 C 25.570008,35 25.11583,35.315102 25,35.806641 V 36 h 0.001 c -9.52e-4,0.01903 -0.002,0.03721 -0.002,0.05664 0,0.633143 0.483048,0.943359 1.116191,0.943359 h 4.742188 C 31.490565,37 32,36.490565 32,35.857422 v -4.742188 c 0,-0.633143 -0.310216,-1.144531 -0.943359,-1.144531 z M 20,30 v 1.857422 C 20,32.490565 20.509435,33 21.142578,33 H 23 V 31 H 22.5 C 22.223,31 22,30.777 22,30.5 V 30 Z"/>
</svg>

<?xml version="1.0" encoding="UTF-8"?>
<svg width="48" height="48" version="1" xmlns="http://www.w3.org/2000/svg">
 <rect x="4" y="17" width="40" height="26" rx="2" ry="2" opacity=".2"/>
 <path d="m4 34c0 1.108 0.892 2 2 2h36c1.108 0 2-0.892 2-2v-22c0-1.108-0.892-2-2-2h-18c-3 0-4-4-7-4h-11c-1.108 0-2 0.892-2 2" fill="#945e80"/>
 <rect x="4" y="15" width="40" height="26" rx="2" ry="2" opacity=".2"/>
 <rect x="6" y="13" width="36" height="16" rx="2" ry="2" fill="#E5DFC8"/>
 <rect x="4" y="16" width="40" height="26" rx="2" ry="2" fill="#d3869b"/>
 <path d="m6 6c-1.108 0-2 0.892-2 2v1c0-1.108 0.892-2 2-2h11c3 0 4 4 7 4h18c1.108 0 2 0.892 2 2v-1c0-1.108-0.892-2-2-2h-18c-3 0-4-4-7-4z" fill="#E5DFC8" opacity=".1"/>
 <path d="m17.143 21c-0.63314 0-1.1426 0.50944-1.1426 1.1426v4.7422c0 0.63314 0.31022 1.1445 0.94336 1.1445s1.0566-0.51139 1.0566-1.1445v-2.1918l2 1.9144v1.3926h2v-0.5c0-0.277 0.223-0.5 0.5-0.5h0.5v-2h-1.3926l-1.9144-2h2.1918c0.63314 0 1.1445-0.4235 1.1445-1.0566s-0.51139-0.94336-1.1445-0.94336zm8.9727 0c-0.63314 0-1.1445 0.31022-1.1445 0.94336s0.51139 1.0566 1.1445 1.0566h2.1918l-1.9144 2h-1.3926v2h0.5c0.277 0 0.5 0.223 0.5 0.5v0.5h2v-1.3926l2-1.9144v2.1918c0 0.63314 0.4235 1.1445 1.0566 1.1445s0.94336-0.51139 0.94336-1.1445v-4.7422c0-0.63314-0.50944-1.1426-1.1426-1.1426zm4.9414 8.9707c-0.63314 0-1.0566 0.51139-1.0566 1.1445v2.1918l-2-1.9144v-1.3926h-2v0.5c0 0.277-0.223 0.5-0.5 0.5h-0.5v2h1.3926l1.9144 2h-2.1918c-0.54523 0-0.9994 0.3151-1.1152 0.80664v0.19336h1e-3c-9.52e-4 0.01903-2e-3 0.03721-2e-3 0.05664 0 0.63314 0.48305 0.94336 1.1162 0.94336h4.7422c0.63319 1e-6 1.1426-0.50943 1.1426-1.1426v-4.7422c0-0.63314-0.31022-1.1445-0.94336-1.1445zm-11.057 0.029297v1.8574c0 0.63314 0.50944 1.1426 1.1426 1.1426h1.8574v-2h-0.5c-0.277 0-0.5-0.223-0.5-0.5v-0.5z" fill="#4A413F"/>
</svg>
